img/logo.svg

<svg width="300" height="48" viewBox="0 0 300 48" fill="none" xmlns="http://www.w3.org/2000/svg">
<path d="M4.73201 48V40.6572H21.5932V33.1513H21.3212C20.5598 34.2754 19.4176 35.2181 17.8946 35.9796C16.3717 36.7411 14.5949 37.1218 12.5643 37.1218C10.2436 37.1218 8.12238 36.5416 6.20057 35.3813C4.31501 34.1847 2.8102 32.5167 1.68612 30.3773C0.56204 28.2017 0 25.6997 0 22.8714C0 20.0793 0.58017 17.5955 1.74051 15.4198C2.93711 13.2442 4.51445 11.5581 6.47252 10.3615C8.46686 9.16487 10.6062 8.56657 12.8907 8.56657C14.9575 8.56657 16.7524 9.0017 18.2754 9.87195C19.8346 10.7059 21.013 11.7756 21.8108 13.081H22.0827V9.21927H30.0782V48H4.73201ZM15.2295 29.779C16.4986 29.779 17.6045 29.5071 18.5473 28.9632C19.5263 28.4193 20.2697 27.6397 20.7773 26.6244C21.3212 25.5728 21.5932 24.3218 21.5932 22.8714C21.5932 21.421 21.3212 20.17 20.7773 19.1184C20.2697 18.0669 19.5263 17.2691 18.5473 16.7252C17.6045 16.1813 16.4986 15.9094 15.2295 15.9094C13.9241 15.9094 12.7819 16.1813 11.8028 16.7252C10.8238 17.2691 10.0623 18.0669 9.51841 19.1184C8.9745 20.17 8.70255 21.421 8.70255 22.8714C8.70255 24.3218 8.9745 25.5728 9.51841 26.6244C10.0623 27.6397 10.8238 28.4193 11.8028 28.9632C12.7819 29.5071 13.9241 29.779 15.2295 29.779Z" fill="white"/>
<path d="M50.2887 38.0465C47.4241 38.0465 44.8133 37.4119 42.4564 36.1428C40.1357 34.8374 38.3045 33.0606 36.9629 30.8125C35.6212 28.5643 34.9504 26.0623 34.9504 23.3065C34.9504 20.5144 35.6212 17.9943 36.9629 15.7462C38.3045 13.498 40.1357 11.7394 42.4564 10.4703C44.8133 9.20113 47.4241 8.56657 50.2887 8.56657C53.117 8.56657 55.6734 9.183 57.9578 10.4159C60.2785 11.6487 62.1096 13.4255 63.4513 15.7462C64.8292 18.0669 65.5181 20.7864 65.5181 23.9048C65.5181 24.1949 65.5181 24.5212 65.5181 24.8839C65.5181 25.2102 65.5181 25.5184 65.5181 25.8085H39.5193V20.3694H59.1L57.0331 21.7836C56.9244 20.5144 56.5618 19.4266 55.9453 18.5201C55.3652 17.5773 54.5856 16.8703 53.6065 16.3989C52.6637 15.8912 51.5759 15.6374 50.3431 15.6374C48.9289 15.6374 47.696 15.9456 46.6445 16.562C45.6292 17.1422 44.8496 18.0125 44.3057 19.1728C43.7618 20.3331 43.4898 21.7111 43.4898 23.3065C43.4898 24.902 43.7618 26.2799 44.3057 27.4402C44.8496 28.6006 45.6292 29.489 46.6445 30.1054C47.696 30.6856 48.9289 30.9756 50.3431 30.9756C51.7572 30.9756 52.9357 30.7399 53.8785 30.2686C54.8212 29.7972 55.6008 29.0901 56.2173 28.1473H64.9198C64.3759 30.1054 63.3969 31.8459 61.9827 33.3688C60.6048 34.8555 58.9006 36.0159 56.87 36.8499C54.8394 37.6476 52.6456 38.0465 50.2887 38.0465Z" fill="white"/>
<path d="M72.7814 37.3938V2.31161H81.2664V30.051H89.4251V37.3938H72.7814ZM67.0704 16.4533V9.65439H88.0653V16.4533H67.0704Z" fill="white"/>
<path d="M103.666 38.0465C101.382 38.0465 99.2423 37.4482 97.248 36.2516C95.2899 35.055 93.7126 33.3326 92.516 31.0844C91.3557 28.8363 90.7755 26.2436 90.7755 23.3065C90.7755 20.3694 91.3557 17.7768 92.516 15.5286C93.7126 13.2805 95.2899 11.5581 97.248 10.3615C99.2423 9.16487 101.382 8.56657 103.666 8.56657C105.733 8.56657 107.546 9.0017 109.105 9.87195C110.701 10.7422 111.897 11.8119 112.695 13.081H112.967V9.21927H120.962V37.3938H112.967V33.532H112.695C111.897 34.8374 110.719 35.9252 109.16 36.7955C107.6 37.6295 105.769 38.0465 103.666 38.0465ZM106.059 30.7037C107.328 30.7037 108.453 30.4136 109.432 29.8334C110.411 29.217 111.154 28.3649 111.662 27.2771C112.206 26.153 112.477 24.8295 112.477 23.3065C112.477 21.7836 112.206 20.4782 111.662 19.3904C111.154 18.2663 110.411 17.4142 109.432 16.834C108.453 16.2176 107.328 15.9094 106.059 15.9094C104.718 15.9094 103.539 16.2176 102.524 16.834C101.545 17.4142 100.783 18.2663 100.24 19.3904C99.7319 20.4782 99.478 21.7836 99.478 23.3065C99.478 24.8295 99.7319 26.153 100.24 27.2771C100.783 28.3649 101.545 29.217 102.524 29.8334C103.539 30.4136 104.718 30.7037 106.059 30.7037Z" fill="white"/>
<path d="M140.873 38.0737H134.346L135.488 31.5467H142.069L140.873 38.0737Z" fill="#F2F2F6"/>
<path d="M160.373 38.0737H151.996L148.57 10.715H154.39L156.783 31.1116H158.034L167.77 10.715H175.276L177.886 31.1116H179.083L188.71 10.715H195.02L181.966 38.0737H173.59L171.033 18.2754H169.837L160.373 38.0737Z" fill="#F2F2F6"/>
<path d="M209.92 38.672C207.201 38.672 204.735 38.1099 202.523 36.9858C200.347 35.8618 198.643 34.3026 197.41 32.3082C196.177 30.2776 195.561 27.9932 195.561 25.455C195.561 22.6992 196.268 20.1609 197.682 17.8402C199.096 15.4833 201.036 13.6159 203.502 12.238C205.968 10.8238 208.724 10.1167 211.769 10.1167C214.489 10.1167 216.937 10.6788 219.112 11.8028C221.288 12.9269 222.992 14.5043 224.225 16.5348C225.458 18.5292 226.074 20.7955 226.074 23.3337C226.074 26.0533 225.367 28.5915 223.953 30.9484C222.539 33.3054 220.599 35.1909 218.133 36.6051C215.668 37.983 212.93 38.672 209.92 38.672ZM210.192 33.5048C212.186 33.5048 213.963 33.0697 215.522 32.1994C217.082 31.2929 218.296 30.0963 219.167 28.6096C220.037 27.0867 220.472 25.455 220.472 23.7145C220.472 21.2125 219.62 19.1819 217.916 17.6227C216.248 16.0635 214.09 15.2839 211.443 15.2839C209.485 15.2839 207.726 15.7371 206.167 16.6436C204.608 17.5139 203.393 18.7105 202.523 20.2334C201.653 21.7201 201.218 23.3337 201.218 25.0742C201.218 27.5762 202.052 29.6068 203.72 31.166C205.388 32.7252 207.545 33.5048 210.192 33.5048Z" fill="#F2F2F6"/>
<path d="M229.912 38.0737L234.753 10.715H239.702L239.757 13.1626H240.083C240.881 12.2924 241.697 11.6759 242.531 11.3133C243.365 10.9144 244.398 10.715 245.631 10.715H251.995L251.124 15.9365H244.924C243.183 15.9365 241.751 16.3898 240.627 17.2963C239.539 18.2028 238.85 19.5082 238.56 21.2125L235.568 38.0737H229.912Z" fill="#F2F2F6"/>
<path d="M258.309 38.0737H252.652L259.396 0H265.053L260.974 23.1705L275.931 10.715H283.655L266.848 24.4215L278.868 38.0737H271.689L260.593 25.0742L258.309 38.0737Z" fill="#F2F2F6"/>
<path d="M290.72 25.4958L293.1 15.0099C293.235 14.4417 293.428 13.923 293.678 13.454C293.928 12.9849 294.284 12.6106 294.745 12.331C295.217 12.0423 295.837 11.898 296.607 11.898C297.155 11.898 297.622 11.9882 298.006 12.1686C298.401 12.349 298.699 12.6106 298.901 12.9534C299.112 13.2961 299.218 13.7065 299.218 14.1846C299.218 14.6627 299.122 15.0866 298.93 15.4564C298.747 15.8172 298.473 16.1194 298.107 16.3629C297.742 16.5975 297.285 16.7734 296.737 16.8906C297.237 16.9898 297.66 17.2199 298.006 17.5807C298.362 17.9324 298.54 18.4466 298.54 19.1231C298.54 19.5831 298.463 20.0116 298.309 20.4084C298.155 20.8053 297.929 21.1526 297.631 21.4503C297.343 21.7479 296.982 21.9779 296.549 22.1403C296.126 22.3027 295.635 22.3838 295.077 22.3838C294.519 22.3838 294.072 22.3072 293.735 22.1538C293.399 21.9915 293.11 21.8246 292.87 21.6532L291.975 25.4958H290.72ZM294.976 21.4097C295.371 21.4097 295.712 21.3465 296.001 21.2202C296.289 21.094 296.53 20.9271 296.722 20.7196C296.915 20.5122 297.059 20.2731 297.155 20.0025C297.251 19.7319 297.299 19.4568 297.299 19.1772C297.299 18.8164 297.232 18.4962 297.097 18.2166C296.963 17.9369 296.746 17.716 296.448 17.5536C296.15 17.3912 295.751 17.3101 295.25 17.3101H294.789L294.991 16.4035H295.525C295.948 16.4035 296.308 16.3494 296.607 16.2412C296.915 16.1329 297.165 15.9841 297.357 15.7947C297.549 15.5962 297.689 15.3662 297.775 15.1046C297.872 14.8431 297.92 14.5634 297.92 14.2658C297.92 13.8689 297.799 13.5397 297.559 13.2781C297.328 13.0075 296.967 12.8722 296.477 12.8722C296.025 12.8722 295.659 12.9759 295.38 13.1834C295.101 13.3818 294.885 13.6479 294.731 13.9817C294.577 14.3064 294.457 14.6627 294.37 15.0505L293.057 20.8414C293.288 21.0128 293.577 21.1526 293.923 21.2608C294.269 21.3601 294.62 21.4097 294.976 21.4097Z" fill="#F5B093"/>
</svg>

<svg xmlns="http://www.w3.org/2000/svg" width="300" height="48" fill="none"><path fill="#fff" d="M4.732 48v-7.343h16.861v-7.506h-.272q-1.141 1.686-3.426 2.829-2.285 1.142-5.33 1.142-3.482 0-6.364-1.74-2.828-1.795-4.515-5.005Q0 27.114 0 22.871q0-4.187 1.74-7.451 1.795-3.264 4.733-5.058 2.99-1.795 6.418-1.795 3.1 0 5.384 1.305 2.34 1.251 3.536 3.209h.272V9.219h7.995V48zm10.497-18.221q1.905 0 3.318-.816a5.35 5.35 0 0 0 2.23-2.339q.816-1.576.816-3.753 0-2.175-.816-3.753-.76-1.577-2.23-2.393-1.413-.816-3.318-.816-1.958 0-3.426.816t-2.285 2.393-.815 3.753.815 3.753a5.7 5.7 0 0 0 2.285 2.34q1.469.815 3.426.815M50.289 38.047q-4.298 0-7.833-1.904-3.48-1.959-5.493-5.33-2.013-3.373-2.013-7.506 0-4.19 2.013-7.56 2.012-3.374 5.493-5.277 3.536-1.903 7.833-1.903 4.242 0 7.669 1.849 3.48 1.85 5.493 5.33 2.067 3.48 2.067 8.159v1.903H39.52V20.37H59.1l-2.067 1.415q-.163-1.904-1.088-3.264a5.5 5.5 0 0 0-2.339-2.121q-1.413-.762-3.263-.762-2.121 0-3.699.925-1.522.87-2.338 2.61-.816 1.742-.816 4.134 0 2.394.816 4.134t2.339 2.665q1.577.87 3.698.87t3.535-.706 2.34-2.122h8.702q-.816 2.937-2.937 5.222-2.067 2.23-5.113 3.48-3.045 1.198-6.581 1.198M72.781 37.394V2.312h8.485V30.05h8.16v7.343zm-5.71-20.94v-6.8h20.994v6.8zM103.666 38.047q-3.427 0-6.418-1.795-2.937-1.796-4.732-5.168-1.74-3.372-1.74-7.777 0-4.407 1.74-7.778 1.795-3.372 4.732-5.167 2.992-1.795 6.418-1.795 3.1 0 5.439 1.305 2.394 1.305 3.59 3.209h.272V9.219h7.995v28.175h-7.995v-3.862h-.272q-1.197 1.957-3.535 3.264-2.34 1.25-5.494 1.25m2.393-7.343q1.904 0 3.373-.87 1.468-.926 2.23-2.557.816-1.686.815-3.97 0-2.285-.815-3.917-.762-1.686-2.23-2.556-1.469-.925-3.373-.925-2.012 0-3.535.925-1.469.87-2.284 2.556-.762 1.633-.762 3.916 0 2.285.762 3.971.815 1.632 2.284 2.556 1.523.87 3.535.87"/><path fill="#F2F2F6" d="M140.873 38.074h-6.527l1.142-6.527h6.581zM160.373 38.074h-8.377l-3.426-27.359h5.82l2.393 20.397h1.251l9.736-20.397h7.506l2.61 20.397h1.197l9.627-20.397h6.31l-13.054 27.359h-8.376l-2.557-19.799h-1.196zM209.92 38.672q-4.079 0-7.397-1.686-3.264-1.686-5.113-4.678-1.85-3.046-1.849-6.853 0-4.134 2.121-7.615 2.121-3.535 5.82-5.602 3.7-2.121 8.267-2.121 4.08 0 7.343 1.686t5.113 4.732q1.85 2.99 1.849 6.799 0 4.08-2.121 7.614-2.121 3.536-5.82 5.657-3.698 2.067-8.213 2.067m.272-5.167q2.991 0 5.33-1.306 2.34-1.36 3.645-3.59a9.7 9.7 0 0 0 1.305-4.895q0-3.752-2.556-6.091-2.502-2.34-6.473-2.34-2.937 0-5.276 1.36-2.339 1.305-3.644 3.59a9.4 9.4 0 0 0-1.305 4.841q0 3.753 2.502 6.092 2.502 2.34 6.472 2.339M229.912 38.074l4.841-27.359h4.949l.055 2.448h.326q1.197-1.305 2.448-1.85 1.25-.598 3.1-.598h6.364l-.871 5.222h-6.2q-2.611 0-4.297 1.36-1.632 1.359-2.067 3.915l-2.992 16.862zM258.309 38.074h-5.657L259.396 0h5.657l-4.079 23.17 14.957-12.455h7.724l-16.807 13.707 12.02 13.652h-7.179l-11.096-13z"/><path fill="#F5B093" d="m290.72 25.496 2.38-10.486a6.5 6.5 0 0 1 .578-1.556q.375-.704 1.067-1.123.707-.433 1.862-.433.822 0 1.399.27.592.272.895.785.317.515.317 1.232t-.288 1.271a2.37 2.37 0 0 1-.823.907q-.548.352-1.37.528.75.148 1.269.69.534.527.534 1.542 0 .69-.231 1.285a3 3 0 0 1-.678 1.042 2.9 2.9 0 0 1-1.082.69q-.635.244-1.472.244t-1.342-.23a6 6 0 0 1-.865-.5l-.895 3.842zm4.256-4.086q.592 0 1.025-.19t.721-.5q.29-.312.433-.717.144-.406.144-.826 0-.54-.202-.96t-.649-.663q-.447-.244-1.198-.244h-.461l.202-.906h.534q.634 0 1.082-.163.462-.162.75-.446.288-.299.418-.69.145-.393.145-.84 0-.594-.361-.987-.347-.406-1.082-.406-.678 0-1.097.311a1.97 1.97 0 0 0-.649.799 5 5 0 0 0-.361 1.069l-1.313 5.79q.347.258.866.42a3.8 3.8 0 0 0 1.053.149"/></svg>
